icons/mobile/24/svg/private-mode-fill-24.svg

<svg width="24" height="24" viewBox="0 0 24 24" fill="none" xmlns="http://www.w3.org/2000/svg">
<path d="M21.6504 13.5843C20.7025 13.5843 20.2192 12.8973 20.0384 11.9639C19.7764 10.6114 19.3212 9.33293 18.7818 8.05751C18.5043 7.40132 17.9961 5.89484 17.1573 5.72232C16.2032 5.52516 15.3613 6.03964 14.2732 8.22079C13.3783 10.0199 12.7734 11.2738 12.7734 11.2738V11.2861L12.1591 11.2799C12.1591 11.2799 12.1529 11.2799 12.1436 11.2799C12.1436 11.2799 12.1061 11.2799 12.0594 11.2799C12.0469 11.2799 12.0375 11.2799 12.0251 11.2799C12.0157 11.2799 12.0064 11.2799 11.997 11.2799C11.9877 11.2799 11.9783 11.2799 11.9689 11.2799C11.9565 11.2799 11.944 11.2799 11.9346 11.2799C11.8879 11.2799 11.8505 11.2799 11.8505 11.2799L11.8349 11.283L11.2206 11.2892V11.2769C11.2206 11.2769 10.6157 10.0199 9.72086 8.22387C8.63579 6.03964 7.79081 5.52824 6.8367 5.7254C5.99795 5.89792 5.48971 7.40748 5.21221 8.06059C4.6728 9.33601 4.21757 10.6114 3.95565 11.9669C3.77481 12.9004 3.29463 13.5843 2.34364 13.5874C2.10043 13.5874 1.9383 13.84 2.02248 14.0649C2.22516 14.6071 2.84876 14.9522 3.36947 15.1524C3.13561 15.214 2.43718 15.0723 2.406 15.4235C2.38106 15.71 3.11067 15.9996 3.30711 16.092C5.14362 16.9762 6.83358 18.5628 9.00683 18.2824C9.95159 18.1592 10.6407 17.4938 11.4139 17.0809C11.7787 16.8869 12.2215 16.8869 12.5863 17.0809C13.3596 17.4938 14.0487 18.1592 14.9934 18.2824C17.1667 18.5628 18.8566 16.9762 20.6931 16.092C20.8896 15.9965 21.6161 15.71 21.5943 15.4235C21.5662 15.0754 20.8678 15.214 20.6308 15.1524C21.1515 14.9522 21.7751 14.6071 21.9778 14.0649C22.062 13.84 21.8967 13.5905 21.6566 13.5874L21.6504 13.5843ZM6.25675 14.0495C6.22868 13.7568 6.86476 13.5319 7.09549 13.495C8.46742 13.267 10.2852 13.8031 10.728 15.2233C9.4683 16.3724 6.87411 15.5806 6.25675 14.0526V14.0495ZM13.2629 15.2233C13.7057 13.8031 15.5235 13.267 16.8954 13.495C17.1261 13.5319 17.7622 13.7568 17.7342 14.0495C17.1137 15.5775 14.5226 16.3724 13.2629 15.2202V15.2233Z" fill="black"/>
</svg>

<!-- This Source Code Form is subject to the terms of the Mozilla Public
   - License, v. 2.0. If a copy of the MPL was not distributed with this
   - file, You can obtain one at http://mozilla.org/MPL/2.0/. -->
<svg xmlns="http://www.w3.org/2000/svg" width="24" height="24" fill="none" viewBox="0 0 24 24">
    <path fill="#000" d="M21.65 13.584c-.947 0-1.43-.687-1.612-1.62-.262-1.353-.717-2.631-1.256-3.906-.278-.657-.786-2.163-1.625-2.336-.954-.197-1.796.318-2.884 2.499-.895 1.799-1.5 3.053-1.5 3.053v.012l-.614-.006h-.309l-.015.003-.614.006v-.012s-.605-1.257-1.5-3.053C8.636 6.04 7.79 5.528 6.837 5.725c-.839.173-1.347 1.682-1.625 2.336-.54 1.275-.994 2.55-1.256 3.906-.181.933-.661 1.617-1.612 1.62-.244 0-.406.253-.322.478.203.542.827.887 1.347 1.087-.233.062-.932-.08-.963.272-.025.286.705.576.901.668 1.837.884 3.527 2.47 5.7 2.19.945-.123 1.634-.788 2.407-1.201a1.25 1.25 0 0 1 1.172 0c.774.413 1.463 1.078 2.407 1.201 2.174.28 3.864-1.306 5.7-2.19.197-.095.923-.382.901-.668-.028-.349-.726-.21-.963-.272.52-.2 1.144-.545 1.347-1.087a.355.355 0 0 0-.321-.478zm-15.393.466c-.028-.293.608-.518.838-.555 1.372-.228 3.19.308 3.633 1.728-1.26 1.15-3.854.358-4.471-1.17zm7.006 1.173c.443-1.42 2.26-1.956 3.632-1.728.231.037.867.262.84.555-.621 1.527-3.212 2.322-4.472 1.17z" />
</svg>
